symbols/web/brightness_3/materialsymbolsrounded/brightness_3_wght600gradN25fill1_40px.svg

<svg xmlns="http://www.w3.org/2000/svg" height="40" width="40"><path d="M32.083 19.958q0 3.459-1.291 6.5-1.292 3.042-3.48 5.354-2.187 2.313-5.166 3.688-2.979 1.375-6.396 1.5-.792.042-1.354-.479-.563-.521-.563-1.313 0-.416.209-.77.208-.355.541-.605 3.292-2.375 4.979-6.145 1.688-3.771 1.688-7.73 0-3.958-1.688-7.708-1.687-3.75-4.979-6.167-.333-.208-.541-.562-.209-.354-.209-.813 0-.791.563-1.312.562-.521 1.354-.479 3.417.166 6.396 1.541t5.166 3.688q2.188 2.312 3.48 5.354 1.291 3.042 1.291 6.458Z"/></svg>

<svg xmlns="http://www.w3.org/2000/svg" height="40" width="40"><path d="M32.083 19.958Q32.083 23.417 30.792 26.458Q29.5 29.5 27.312 31.812Q25.125 34.125 22.146 35.5Q19.167 36.875 15.75 37Q14.958 37.042 14.396 36.521Q13.833 36 13.833 35.208Q13.833 34.792 14.042 34.438Q14.25 34.083 14.583 33.833Q17.875 31.458 19.562 27.688Q21.25 23.917 21.25 19.958Q21.25 16 19.562 12.25Q17.875 8.5 14.583 6.083Q14.25 5.875 14.042 5.521Q13.833 5.167 13.833 4.708Q13.833 3.917 14.396 3.396Q14.958 2.875 15.75 2.917Q19.167 3.083 22.146 4.458Q25.125 5.833 27.312 8.146Q29.5 10.458 30.792 13.5Q32.083 16.542 32.083 19.958Z"/></svg>
